X:1
T:No perfect woman lives
T:anon.
%%score [ 1 2 3 ]
L:1/8
Q:1/4=70
M:3/4
K:F
V:1 treble nm="I"
V:2 treble nm="II"
V:3 treble nm="III"
V:1
|: C2 | F3 C C C | ^F4 C2 | G3 C C C | ^G4 C2 | A3 C C C | B4 B2 | =B3 B B B | c4 :| %9
w: No|per- fect wo- man|lives, so|poor a thing is|life, How|can a per- fect|man com|by a per- fect|wife?|
V:2
|: (cB) | A4 A2 | A4 (dc) | B4 B2 | =B4 B2 | c3 A G F | d3 B A G | F3 A G F | E4 :| %9
w: No _|per- fect|wo- man _|lives, and|yet, so|rich a thing is|life that ev'- ry|per- fect man can|get|
V:3
|: A,2 | C4 C2 | C4 C2 | C4 C2 | C4 C2 | C4 C2 | B,4 B,2 | D4 D2 | C4 :| %9
w: |||||||||
w: a|per- fect|wo- man|for a|wife, A|per- fect|wo- man|for a|wife.|

